share/cpipe/ocio/v0.2/luts/standard_hdr.spi1d
Version 1
From 0 1
Length 17
Components 3
{
        0        0        0
  0.06250  0.06250  0.06250
  0.12500  0.12500  0.12500
  0.18750  0.18750  0.18750
  0.25000  0.25000  0.25000
  0.31250  0.31250  0.31250
  0.37500  0.37500  0.37500
  0.43750  0.43750  0.43750
  0.50000  0.50000  0.50000
  0.56250  0.56250  0.56250
  0.62500  0.62500  0.62500
  0.68750  0.68750  0.68750
  0.75000  0.75000  0.75000
  0.81250  0.81250  0.81250
  0.87500  0.87500  0.87500
  0.93750  0.93750  0.93750
        1        1        1
}
